!!! OTL: Berkowitz254
!!! Chapter: 1
!!! Section: II
!!! Page: 59
!!! Mode: 
!!! Encoder: DJB
**kern
*staff1
*I"Piano
=1-
*clefF4
*k[b-e-]
*B-:
*M3/4
8FF/L
8AA/J
8C/L
8E-/J
8D/L
8C/J
=2
4D\
4BB-/
4FF/
=3
8GG/L
8BB-/J
8E-\L
8G\J
8F\L
8E-\J
=4
4F\
4r
4F\
=5
8En\L
8F\J
8G\L
8C\J
8D\L
8E\J
=6
4F\
4C/
4D\
=7
8E-\L
8D\J
8C\L
8G\J
8F/L
8AA/J
=8
2.r
=9
!!linebreak:original
8FF/L
8AA/J
8C/L
8E-/J
4r
=10
8C\L
8En\J
8G\L
8B-\J
4r
=11
8FF/L
8AA/J
8C/L
8E-/J
8D/L
8C/J
=12
4r
4BB-/
4r
==
*-
